X: 1
T: Holmes' Fancy
M: 4/4
L: 1/8
R: polka
S: John Peacock MS. (1800-1805)
K: Gmaj
GB/c/ dB ecdB|GB/c/ dB cA (3cde|GB/c/ dB ecdB|(3cde dc BG G:|
|:g|fdec dB Gg|fdec d2 (3efg|GgAg Bgcg|d>edB G2G:|
